X:1
T:Tota pulchra est
T:Morel ed. BMarble
T:Tota pulchra est
T:Copyright © 2014 by CPDL.  This edition can be fully distributed, duplicated, performed, and recorded 
T:Copyright © 2014 by CPDL.  This edition can be fully distributed, duplicated, performed, and recorded 
T:Copyright © 2014 by CPDL.  This edition can be fully distributed, duplicated, performed, and recorded 
T:Copyright © 2014 by CPDL.  This edition can be fully distributed, duplicated, performed, and recorded 
T:Copyright © 2014 by CPDL.  This edition can be fully distributed, duplicated, performed, and recorded 
T:Copyright © 2014 by CPDL.  This edition can be fully distributed, duplicated, performed, and recorded 
T:Copyright © 2014 by CPDL.  This edition can be fully distributed, duplicated, performed, and recorded 
T:Copyright © 2014 by CPDL.  This edition can be fully distributed, duplicated, performed, and recorded 
C:Morel
C:ed. BMarble
Z:Copyright © 2014 by CPDL.  This edition can be fully distributed, duplicated, performed, and recorded
%%score [ 1 2 3 4 ]
L:1/8
Q:1/2=100
M:4/2
K:Bb
V:1 treble nm="SOPRANO" snm="S."
V:2 treble nm="ALTO" snm="A."
V:3 treble-8 transpose=-12 nm="TENOR" snm="T."
V:4 bass nm="BASS" snm="B."
V:1
 D8 F8- | F4 G4 A8 | D16 | z4 A8 F4 | G4 B4 A8 | z4 B4 A4 G4 | F4 F4 G8 | A8 D4 B4 | A4 G4 F4 F4 | %9
w: To- ta|_ pul- chra|es,|a- mi-|ca me- a,|et ma- cu-|la non est|in te, et|ma- cu- la non|
 E2 D2 G8 ^F4 | G4 (B4 G4) A4- | A4 (B6 A2 G2 F2 | G8) F8- | F16 | z16 | z16 | z16 | z16 | %18
w: est _ _ in|te, non _ est|_ in _ _ _|_ te,|_|||||
 z8 z4 A4 | B8 A4 F4- | F4 G4 A4 F4 | G6 A2 B4 A4- | A4 G8 ^F4 | G8 z8 | D8 F8- | F4 =E4 F4 G4 | %26
w: mel|et lac sub|_ lin- gua tu-|||a,|o- dor|_ un- guen- to-|
 A8 F4 G4- | G2 F2 =E2 D2 E4 D2 E2 | F2 G2 A8 G4 | A8 z8 | A8 A4 (B4 | A4) G4 B4 (A4 | G4) F4 =E8 | %33
w: rum tu- o-|||rum,|su- per o-|* mni- a a-|* ro- ma-|
 D4 F8 F4 | F8 G8 | A4 A4 B8 | A8 z4 d4- | d4 d4 d4 d4 | c8 A4 B4- | B4 (A4 G8) | F16- | F8 z8 | %42
w: ta, dum e-|nim hi-|ems tran- si-|it, im-|* ber ab- i-|it, et re-|* ces- *|sit,|_|
 z4 G8 F4 | G4 A4 B8 | A8 z8 | z16 | z16 | z4 B8 B4 | A4 A4 G8 | z4 G4 G4 F4 | G8 z4 A4 | %51
w: vi- e-|ae flo- ren-|tes,|||et vox|tur- tu- ris|au- di- ta|est in|
 B4 G4 A8 | D8 z4 G4- | G4 F4 G4 B4 | A4 c4 B4 A4- | A2 G2 G8 ^F4 | G16 | z4 B8 B4 | A4 G4 d8 | %59
w: ter- ra no-|stra, in|_ ter- ra nos-|tra, ter- ra no-||stra.|Sur- ge,|pro- pe- ra|
 z4 G4 A4 A4 | B8 A4 B4- | (B4 A2 G2) F8 | z4 D4 F4 F4 | G8 F4 A4 | A4 A4 B8 | A8 z4 d4- | %66
w: a- mi- ca|me- a, me-|* * * a,|a- mi- ca|me- a, a-|mi- ca me-|a, ve-|
 d4 B4 G4 c4- | c4 A4 A4 d4- | d4 B4 G4 c4- | (c2 B2 A2 G2 F4) (B4 | A4) (G8 ^F4) | G8 z4 d4- | %72
w: * ni de Li-|* ba- no, ve-|* ni, co- ro-|* * * * * na-|* be- *|ris, ve-|
 d4 B4 G4 c4- | c4 A4 A4 d4- | d4 B4 G4 c4- | (c2 B2 A2 G2 F4) (B4 |"^rit." A4) (G8 ^F4) | G16 |] %78
w: * ni de Li-|* ba- no, ve-|* ni, co- ro-|* * * * * na-|* be- *|ris.|
V:2
 z16 | z16 | G,8 B,8- | B,4 C4 D8 | G,8 z4 D4- | D4 B,4 C4 E4 | D8 z4 E4 | D4 C4 B,4 B,4 | C8 D8 | %9
w: ||To- ta|_ pul- chra|es, a-|* mi- ca me-|a, et|ma- cu- la non|est in|
 G,8 z4 D4 | D4 D4 (C2 B,2 A,2 G,2 | A,4) (G,2 A,2 B,2 C2 D4-) | D4 C4 D8- | D8 z8 | z16 | z16 | %16
w: te, ma-|cu- la non _ _ _|_ est _ _ _ _|_ in te,|_|||
 z16 | z16 | z16 | z8 z4 A,4 | B,8 A,4 B,4- | B,4 C4 D8- | D4 E4 D8 | z8 G,8 | B,12 A,4 | %25
w: |||mel|et lac sub|_ lin- gua|_ tu- a,|o-|dor un-|
 B,4 C4 D4 B,4 | C2 B,2 A,2 G,2 A,4 G,4 | B,8 C4 D4- | D2 C2 B,2 A,2 B,8 | A,16 | z4 D8 D4 | %31
w: guen- to- * *|* * * * rum tu-|o- * *||rum,|su- per|
 (F4 =E4) D4 F4 | =E4 D8 ^C4 | D4 D8 D4 | D8 =E8 | F4 F8 =E4 | F8 z4 F4- | F4 F4 F8 | =E8 D8 | %39
w: o- * mni- a|a- ro- ma-|ta, dum e-|nim hi-|ems tran- si-|it, im-|* ber ab-|i- it|
 z4 D4 B,4 C4 | D16 | z16 | z8 z4 D4- | D4 C4 D4 =E4 | F8 D8 | z16 | z16 | z4 F8 F4 | F4 F4 D4 D4 | %49
w: et re- ces-|sit,||vi-|* ne- ae flo-|ren- tes,|||et vox|tur- tu- ris au-|
 D4 C4 D4 D4 | B,4 C4 A,8 | G,8 z8 | z4 D4 E4 C4 | D8 G,4 D4- | D4 C4 D4 (F4 | E8) D8- | D16 | %57
w: di- ta est in|ter- ra no-|stra,|in ter- ra|no- stra, in|_ ter- ra no-|* stra.|_|
 z4 G8 G4 | F4 E4 D4 D4 | D4 =E4 F8 | D4 G4 F4 D4- | D4 C4 D8- | D16 | z8 z4 D4 | F4 F4 G8 | ^F16 | %66
w: Sur- ge|pro- pe- ra a-|mi- ca me-|a, a- mi- ca|_ me- a,|_|a-|mi- ca me-|a,|
 z4 G8 E4 | C4 F8 D4 | D4 G8 E4 | C4 F12 | E4 C4 D8 | z4 (D8 B,4) | G,4 G8 E4 | C4 F8 D4 | %74
w: ve- ni|de Li- ba-|no, ve- ni,|co- ro-|na- be- ris,|ve- *|ni ve- ni|de Li- ba-|
 D4 G8 E4 | C4 F12 | E4 (C4 D8) | =B,16 |] %78
w: no, ve- ni,|co- ro-|na- be- *|ris.|
V:3
 z16 | z16 | z16 | z16 | z16 | z16 | z16 | z16 | z8 z4 d4 | c4 B4 A8 | z4 B4 c8 | d8 G8 | %12
w: ||||||||Et|ma- cu- la|non est|in te,|
 z4 G4 A4 A4 | B8 A4 d4- | d4 c4 d4 B4 | A8 z4 G4 | B8 A4 F4- | F4 G4 A4 F4 | G6 A2 B4 A4 | G8 F8 | %20
w: fa- vus di-|stil- lans la|_ bi- a tu-|a, mel|et lac sub|_ lin- gua tu-||* a,|
 z16 | z4 G8 F4 | B4 (c4 A8) | G4 (B6 A2 G2 F2 | G8) D8 | z16 | z16 | z16 | z16 | z16 | z16 | z16 | %32
w: |sub lin-|gua tu- *|a, tu- * * *|* a,||||||||
 z8 A8- | A4 A4 A8 | F8 (c6 B2 | c4) d8 (c2 B2 | c8) d8 | z4 B8 A4 | G4 G4 F4 G4- | G4 F4 G8 | %40
w: dum|_ e- nim|hi- mens _|_ tran- si- *|* it,|im- ber|ab- i- it et|_ re- ces-|
 A8 z4 A4- | A4 B4 c4 d4 | c4 B4 A8 | z16 | z4 d8 B4 | G4 (c6 B2 A2 G2 | F4) (B8 A4) | B4 d8 d4 | %48
w: sit, flo-|* res ap- pa-|ru- e- runt,||o- do-|rem de- * * *|* de- *|runt, et vox|
 c4 c4 B8 | z4 c4 B4 A4 | G4 G8 F4 | G4 B4 A4 c4 | (B2 A2 G2 F2 G8) | A4 A4 B4 G4 | A8 D4 d4 | %55
w: tur- tu- ris|au- di- ta|est in ter-|ra no- stra, in|ter- * * * *|ra, in ter- ra|no- stra, in|
 B4 c4 A8 | G4 B8 B4 | A4 G4 d8 | z4 B8 B4 | A4 G4 d8- | d16 | z4 G4 A4 A4 | B8 A4 d4- | %63
w: ter- ra no-|tra. Sur- ge,|pro- pe- ra,|sur- ge|pro- pe- ra,|_|a- mi- ca|me- a, me|
 (d4 c4) d8- | d16- | d8 d8 | B4 G4 c8 | A4 A4 d8 | B4 G4 c6 B2 | A2 G2 F2 G2 A4 d4 | %70
w: _ _ a,|_|* ve-|ni de Li-|ba- no, ve-|ni, co- ro- *|* * * * * na-|
 (c2 B2 A2 G2 A8) | G8 d8 | B4 G4 c8 | A4 A4 d8 | B4 G4 c6 B2 | A2 G2 F2 G2 A4 d4 | %76
w: be- * * * *|ris, ve-|ni de Li-|ba- no, ve-|ni, co- ro- *|* * * * * na-|
 (c2 B2 A2 G2 A8) | G16 |] %78
w: be- * * * *|ris.|
V:4
 z16 | z16 | z16 | z16 | z16 | z16 | z16 | z8 z4 G,4 | F,4 E,4 D,4 B,,4 | C,8 D,8 | %10
w: |||||||Et|ma- cu- la non|est in|
 G,,4 G,4 (=E,4 F,4-) | F,4 (G,6 F,2 _E,2 D,2 | E,8) D,8 | z4 D,4 D,4 D,4 | E,8 D,4 G,4- | %15
w: te, non est _|_ in _ _ _|_ te|fa- vus di-|stil- lans la-|
 G,4 F,4 G,4 E,4 | D,8 z4 A,,4 | B,,8 A,,4 B,,4- | B,,4 C,4 (D,6 C,2 | B,,4) G,,4 D,8- | %20
w: * bi- a tu-|a mel|et lac sub|_ lin- gua _|_ tu- *|
 D,4 E,4 F,4 D,4 | E,8 D,4 D,4 | G,4 C,4 D,8 | G,,16- | G,,8 z8 | z16 | z16 | z16 | z16 | z16 | %30
w: |* a, sub|lin- gua tu-|a,|_||||||
 z16 | z16 | z16 | D,12 D,4 | D,8 C,8 | F,4 D,4 G,8 | F,8 z4 B,,4- | B,,4 B,,4 B,,8 | %38
w: |||dum e-|nim hi-|mens tran- si-|it, im-|* ber ab-|
 C,8 D,4 G,,4 | D,8 _E,8 | D,8 z4 D,4- | D,4 D,4 C,4 B,,4 | F,4 G,4 D,8 | z16 | z8 G,8 | %45
w: i- it, et|re- ces-|sit, flo-|* res ap- pa-|ru- e- runt,||o-|
 E,4 C,4 (F,6 E,2 | D,4) (B,,4 C,8) | B,,4 B,,8 B,,4 | F,4 F,4 G,4 G,4 | F,4 E,4 D,4 D,4 | %50
w: do- rem de- *|* de- *|runt, et vox|tur- tu- ris au-|di- ta est in|
 E,4 C,4 D,8 | G,,4 G,8 F,4 | G,8 C,4 E,4 | D,8 z8 | z8 z4 D,4 | E,4 C,4 D,8 | G,,4 G,8 G,4 | %57
w: ter- ra no-|stra, est in|ter- ra no-|stra,|in|ter- ra no-|stra. Sur- ge,|
 F,4 G,4 G,8 | z4 G,8 G,4 | F,4 =E,4 D,8 | z4 G,,4 D,4 D,4 | _E,8 D,8 | z4 G,,4 D,4 D,4 | %63
w: pro- pe- ra|a- mi-|ca me- a,|a- mi- ca|me- a,|a- mi- ca|
 E,8 D,4 D,4 | D,4 D,4 G,,8 | D,16 | G,8 E,4 C,4 | F,8 D,4 D,4 | G,8 E,4 C,4 | %69
w: me- a, a-|mi- ca me-|a,|ve- ni de|Li- ba- no,|ve- ni, co-|
 (F,6 E,2 D,2 C,2 B,,4) | C,4 (E,4 D,8) | G,,16 | G,8 E,4 C,4 | F,8 D,4 D,4 | G,8 E,4 C,4 | %75
w: ro- * * * *|na- be- *|ris,|ve- ni de|Li- ba- no,|ve- ni, co-|
 (F,6 E,2 D,2 C,2 B,,4) | C,4 (E,4 D,8) | G,,16 |] %78
w: ro- * * * *|na- be- *|ris.|

